X:208
%%musicspace -10
T:Marmaduke's Hornpipe
M:4/4
L:1/8
K:D
"D"A2 A2 AdBA | F2 FF D2 D2 | "A7"E2 A2 E2 A2 | E2 A2 E2 A2 | 
"D"A2 A2 AdBA | F2 FF D2 D2 | "A7"E2 A2 E3 E | "D"F3 E D4 :|]
[|:"D"d2 e2 fefe | "G"d2 e2 gege | "D" d2 e2 f2 df | "A7"e2 A2 ABcA | 
"D"d2 e2 fefe | "G"d2 e2 g3 a | "Em"b2 a2 "A7"g2 e2 | "D"d8 :|]

%%newpage
%%scale 0.791

